X:1
T:Wenn ich ein Vöglein wär
%%score { ( 1 2 ) | 3 }
L:1/4
M:3/4
I:linebreak $
K:G
V:1 treble
V:2 treble 
V:3 bass 
V:1
 [GB] [Ac] [GBd] | d/c/ [DGB] [FA] | [B,DG]3 |] %3
V:2
 D2 G | [EA] D D/C/ | x3 |] %3
V:3
 "_T"G,,3 | C, "_{SS}"D, D,, | "_T"G,,3 |] %3